X: 202
T: Lady Scott's Reel
C: by John Pringle
B: John Pringle "Collection of Reels Strathspeys & Jigs", 1801 p.20#2
Z: 2011 John Chambers <jc:trillian.mit.edu>
R: reel
M: C|
L: 1/8
K: Bb
V: 1
F | ~B2AB FDB,2 | ~B2AB   Gccd | ~B2AB FDFB | A>BcA B2-B :|
F |  Bcde fd~cB | gabg {g}f2dB |  Bcde fgab | afc=e ~f2d ||
f | ~gfgb fgdB  | ~cBcd   BAGF | ~B2AB FBdB | ABcA   B2B |]
V: 2 clef=bass middle=d
z | B2B2 B2B2 | B2B2 c2c2 | B2f2 d2B2 | f2F2 B2B :|
z | B2B2 d2f2 | e2e2 d2B2 | B2B2 d2=e2 f2c2 F2z ||
z | e2e2 d2B2 | e2=e2 f2_e2 | B2f2 d2B2 | f2F2 B2B |]

%%sep 2 1 500

